images/VAB.svg

<svg height="250" viewBox="0 0 250 250" width="250" xmlns="http://www.w3.org/2000/svg" xmlns:xlink="http://www.w3.org/1999/xlink"><linearGradient id="a" gradientUnits="userSpaceOnUse" x1="53.75" x2="140.174999375" y1="62.408938125" y2="208.91687375"><stop offset="0" stop-color="#03001e" stop-opacity=".15"/><stop offset=".28941" stop-color="#7303c0" stop-opacity=".15"/><stop offset=".680035" stop-color="#ec38bc" stop-opacity=".15"/><stop offset="1" stop-color="#fdeff9" stop-opacity=".15"/></linearGradient><linearGradient id="b" gradientUnits="userSpaceOnUse" x1="53.75" x2="140.174999375" y1="62.408938125" y2="208.91687375"><stop offset="0" stop-color="#03001e"/><stop offset=".28941" stop-color="#7303c0"/><stop offset=".680035" stop-color="#ec38bc"/><stop offset="1" stop-color="#fdeff9"/></linearGradient><path d="m250 125c0 69.035156-55.964844 125-125 125s-125-55.964844-125-125 55.964844-125 125-125 125 55.964844 125 125zm0 0" fill="#0c0e11"/><path d="m134.425781 198.640625c-2.996093 5.195313-10.496093 5.195313-13.496093.003906l-66.121094-114.453125c-3.003906-5.195312.746094-11.691406 6.746094-11.691406h118.460937c12.0625 0 19.554687 13.117188 13.421875 23.507812l-14.382812 24.367188c-5.605469 9.5-15.816407 15.328125-26.84375 15.328125h-45.019532c-2.636718 0-4.253906 2.886719-2.875 5.136719.613282 1 1.703125 1.609375 2.875 1.609375h32.667969c11.996094 0 19.496094 12.984375 13.5 23.371093zm0 0" fill="url(#a)"/><path d="m56.972656 82.941406 66.121094 114.449219c2.039062 3.53125 7.132812 3.527344 9.167969 0l18.933593-32.816406c5.03125-8.726563-1.261718-19.625-11.335937-19.625h-32.667969c-2.042968 0-3.9375-1.0625-5.007812-2.804688-2.398438-3.914062.417968-8.941406 5.007812-8.941406h45.019532c10.144531 0 19.535156-5.359375 24.691406-14.097656l14.382812-24.371094c5.148438-8.722656-1.140625-19.734375-11.269531-19.734375h-118.460937c-4.074219 0-6.621094 4.410156-4.582032 7.941406zm63.957032 115.703125c3 5.191407 10.5 5.191407 13.496093-.003906l18.933594-32.820313c5.996094-10.386718-1.503906-23.371093-13.5-23.371093h-32.667969c-1.171875 0-2.261718-.609375-2.875-1.609375-1.378906-2.25.238282-5.136719 2.875-5.136719h45.019532c11.027343 0 21.238281-5.828125 26.84375-15.328125l14.382812-24.367188c6.132812-10.390624-1.359375-23.507812-13.421875-23.507812h-118.460937c-6 0-9.75 6.496094-6.746094 11.691406zm0 0" fill="url(#b)" fill-rule="evenodd"/></svg>

<svg xmlns="http://www.w3.org/2000/svg" xmlns:xlink="http://www.w3.org/1999/xlink" width="250px" height="250px" viewBox="0 0 250 250" version="1.1">
<defs>
<linearGradient id="linear0" gradientUnits="userSpaceOnUse" x1="86" y1="99.854301" x2="224.279999" y2="334.266998" gradientTransform="matrix(0.625,0,0,0.625,0,0)">
<stop offset="0" style="stop-color:rgb(1.176471%,0%,11.764706%);stop-opacity:0.15;"/>
<stop offset="0.28941" style="stop-color:rgb(45.09804%,1.176471%,75.294119%);stop-opacity:0.15;"/>
<stop offset="0.680035" style="stop-color:rgb(92.54902%,21.960784%,73.725492%);stop-opacity:0.15;"/>
<stop offset="1" style="stop-color:rgb(99.215686%,93.725491%,97.647059%);stop-opacity:0.15;"/>
</linearGradient>
<linearGradient id="linear1" gradientUnits="userSpaceOnUse" x1="86" y1="99.854301" x2="224.279999" y2="334.266998" gradientTransform="matrix(0.625,0,0,0.625,0,0)">
<stop offset="0" style="stop-color:rgb(1.176471%,0%,11.764706%);stop-opacity:1;"/>
<stop offset="0.28941" style="stop-color:rgb(45.09804%,1.176471%,75.294119%);stop-opacity:1;"/>
<stop offset="0.680035" style="stop-color:rgb(92.54902%,21.960784%,73.725492%);stop-opacity:1;"/>
<stop offset="1" style="stop-color:rgb(99.215686%,93.725491%,97.647059%);stop-opacity:1;"/>
</linearGradient>
</defs>
<g id="surface1">
<path style=" stroke:none;fill-rule:nonzero;fill:rgb(4.705882%,5.490196%,6.666667%);fill-opacity:1;" d="M 250 125 C 250 194.035156 194.035156 250 125 250 C 55.964844 250 0 194.035156 0 125 C 0 55.964844 55.964844 0 125 0 C 194.035156 0 250 55.964844 250 125 Z M 250 125 "/>
<path style=" stroke:none;fill-rule:nonzero;fill:url(#linear0);" d="M 134.425781 198.640625 C 131.429688 203.835938 123.929688 203.835938 120.929688 198.644531 L 54.808594 84.191406 C 51.804688 78.996094 55.554688 72.5 61.554688 72.5 L 180.015625 72.5 C 192.078125 72.5 199.570312 85.617188 193.4375 96.007812 L 179.054688 120.375 C 173.449219 129.875 163.238281 135.703125 152.210938 135.703125 L 107.191406 135.703125 C 104.554688 135.703125 102.9375 138.589844 104.316406 140.839844 C 104.929688 141.839844 106.019531 142.449219 107.191406 142.449219 L 139.859375 142.449219 C 151.855469 142.449219 159.355469 155.433594 153.359375 165.820312 Z M 134.425781 198.640625 "/>
<path style=" stroke:none;fill-rule:evenodd;fill:url(#linear1);" d="M 56.972656 82.941406 L 123.09375 197.390625 C 125.132812 200.921875 130.226562 200.917969 132.261719 197.390625 L 151.195312 164.574219 C 156.226562 155.847656 149.933594 144.949219 139.859375 144.949219 L 107.191406 144.949219 C 105.148438 144.949219 103.253906 143.886719 102.183594 142.144531 C 99.785156 138.230469 102.601562 133.203125 107.191406 133.203125 L 152.210938 133.203125 C 162.355469 133.203125 171.746094 127.84375 176.902344 119.105469 L 191.285156 94.734375 C 196.433594 86.011719 190.144531 75 180.015625 75 L 61.554688 75 C 57.480469 75 54.933594 79.410156 56.972656 82.941406 Z M 120.929688 198.644531 C 123.929688 203.835938 131.429688 203.835938 134.425781 198.640625 L 153.359375 165.820312 C 159.355469 155.433594 151.855469 142.449219 139.859375 142.449219 L 107.191406 142.449219 C 106.019531 142.449219 104.929688 141.839844 104.316406 140.839844 C 102.9375 138.589844 104.554688 135.703125 107.191406 135.703125 L 152.210938 135.703125 C 163.238281 135.703125 173.449219 129.875 179.054688 120.375 L 193.4375 96.007812 C 199.570312 85.617188 192.078125 72.5 180.015625 72.5 L 61.554688 72.5 C 55.554688 72.5 51.804688 78.996094 54.808594 84.191406 Z M 120.929688 198.644531 "/>
</g>
</svg>
